X: 7
T: The Rooms Of Dooagh
T: Pat Canny's Jig
T: Petticoats Loose
N: The name refers to a cave system between Maghera and Tulla.
M: 6/8
L: 1/8
R: jig
F: http://www.thesession.org/tunes/display/2277
K: Dmix
|: GEE cEE | GAG G2A | GEE cBc | ded dcA |\
GEE cEE | GAG G2g | ^fed cAG | Add dcA |
GEE cEE | GAG G2A | GEE cBc | ded dcA |\
GEE cEE | GAG G2g | ^fed cAG | Add def ||
g3 ged | cAB cde | g3 ged | eaa age |\
gea ged | cAB cde | fed cAG | Add def |
g3 ged | cAB cde | g3 ged | eaa age |\
gea ged | cAB cde | fed cAG | Add dcA :|

%%sep 2 1 500

